swiss/communes/0003.svg

<?xml version="1.0" encoding="UTF-8" standalone="no"?>
<!-- Created with Inkscape (http://www.inkscape.org/) -->
<svg
   xmlns:svg="http://www.w3.org/2000/svg"
   xmlns="http://www.w3.org/2000/svg"
   version="1.0"
   width="277.00006"
   height="324.46243"
   id="svg2780">
  <defs
     id="defs2782" />
  <g
     transform="translate(14.78503,-790.32921)"
     id="layer1">
    <path
       d="M -13.78503,791.32921 L -8.7850345,1001.3047 C -5.2136185,1151.2873 252.64359,1151.2873 256.21502,1001.3047 L 261.21502,791.32921 L -13.78503,791.32921 z"
       id="path3282"
       style="fill:#fdea39;fill-opacity:1;fill-rule:evenodd;stroke:#000000;stroke-width:1.99999988;stroke-linecap:butt;stroke-miterlimit:4;stroke-dashoffset:0;stroke-opacity:1" />
    <path
       d="M 29.605817,834.56017 L 33.027965,988.23485 C 35.47235,1098.0026 211.95763,1098.0026 214.40202,988.23485 L 217.82417,834.56017 L 29.605817,834.56017 z"
       id="path7481"
       style="fill:#000000;fill-opacity:1;fill-rule:evenodd;stroke:#000000;stroke-width:1.99999988;stroke-linecap:butt;stroke-miterlimit:4;stroke-dashoffset:0;stroke-opacity:1" />
    <path
       d="M 33.222417,954.79641 L 63.393518,1049.541 L 93.564615,954.79641 L 123.73573,834.65997 L 153.9068,954.79641 L 184.07792,1049.541 L 214.249,954.79641 L 184.07792,834.65997 L 153.9068,954.79641 L 123.73573,1070.0787 L 93.564615,954.79641 L 63.393518,834.65997 L 33.222417,954.79641 z"
       id="path7492"
       style="fill:#ffffff;fill-opacity:1;fill-rule:evenodd;stroke:none;stroke-width:0.99999994px;stroke-linecap:butt;stroke-linejoin:miter;stroke-opacity:1" />
    <path
       d="M 184.07793,834.65997 L 184.07793,1049.541"
       id="path7487"
       style="fill:none;fill-opacity:0.65573772;fill-rule:evenodd;stroke:#000000;stroke-width:0.99999988px;stroke-linecap:butt;stroke-linejoin:miter;stroke-opacity:1" />
    <path
       d="M 31.804042,954.79641 L 215.62595,954.79641"
       id="path7314"
       style="fill:none;fill-opacity:0.75;fill-rule:evenodd;stroke:#000000;stroke-width:1px;stroke-linecap:butt;stroke-linejoin:miter;stroke-opacity:1" />
    <path
       d="M 123.73612,834.65997 L 123.73612,1070.0787"
       id="path7301"
       style="fill:none;fill-opacity:0.75;fill-rule:evenodd;stroke:#000000;stroke-width:1px;stroke-linecap:butt;stroke-linejoin:miter;stroke-opacity:1" />
    <path
       d="M 63.393521,834.65997 L 63.393521,1049.541"
       id="path6782"
       style="fill:none;fill-opacity:0.65573772;fill-rule:evenodd;stroke:#000000;stroke-width:0.99999988px;stroke-linecap:butt;stroke-linejoin:miter;stroke-opacity:1" />
  </g>
</svg>

<svg xmlns="http://www.w3.org/2000/svg" version="1.0" width="277" height="324.462"><path d="m-13.785 791.33 5 209.975c3.571 149.982 261.429 149.982 265 0l5-209.976h-275z" style="fill:#fdea39;fill-opacity:1;fill-rule:evenodd;stroke:#000;stroke-width:1.99999988;stroke-linecap:butt;stroke-miterlimit:4;stroke-dashoffset:0;stroke-opacity:1" transform="translate(14.785 -790.33)"/><path d="m29.606 834.56 3.422 153.675c2.444 109.768 178.93 109.768 181.374 0l3.422-153.675H29.606z" style="fill:#000;fill-opacity:1;fill-rule:evenodd;stroke:#000;stroke-width:1.99999988;stroke-linecap:butt;stroke-miterlimit:4;stroke-dashoffset:0;stroke-opacity:1" transform="translate(14.785 -790.33)"/><path d="m33.222 954.796 30.172 94.745 30.17-94.745 30.172-120.136 30.17 120.136 30.172 94.745 30.171-94.745-30.171-120.136-30.171 120.136-30.171 115.283-30.171-115.283L63.394 834.66 33.222 954.796z" style="fill:#fff;fill-opacity:1;fill-rule:evenodd;stroke:none;stroke-width:.99999994px;stroke-linecap:butt;stroke-linejoin:miter;stroke-opacity:1" transform="translate(14.785 -790.33)"/><path d="M184.078 834.66v214.881" style="fill:none;fill-opacity:.65573772;fill-rule:evenodd;stroke:#000;stroke-width:.99999988px;stroke-linecap:butt;stroke-linejoin:miter;stroke-opacity:1" transform="translate(14.785 -790.33)"/><path d="M31.804 954.796h183.822M123.736 834.66v235.419" style="fill:none;fill-opacity:.75;fill-rule:evenodd;stroke:#000;stroke-width:1px;stroke-linecap:butt;stroke-linejoin:miter;stroke-opacity:1" transform="translate(14.785 -790.33)"/><path d="M63.394 834.66v214.881" style="fill:none;fill-opacity:.65573772;fill-rule:evenodd;stroke:#000;stroke-width:.99999988px;stroke-linecap:butt;stroke-linejoin:miter;stroke-opacity:1" transform="translate(14.785 -790.33)"/></svg>
